packages/core/src/svgs/tokens/branded/ORAI.svg

<svg width="24" height="24" viewBox="0 0 24 24" fill="none" xmlns="http://www.w3.org/2000/svg">
<path fill-rule="evenodd" clip-rule="evenodd" d="M10.8151 2C6.20126 2.54133 2.54098 6.2016 2.00024 10.8154H3.79188C4.31129 7.18419 7.18384 4.31164 10.8151 3.79223V2ZM13.1842 3.79223V2C17.798 2.54133 21.4582 6.2016 21.9996 10.8154H20.2074C19.6879 7.18419 16.8154 4.31164 13.1842 3.79223ZM13.1842 20.2077C16.8154 19.6882 19.6879 16.8158 20.2074 13.1845H21.9996C21.4582 17.7984 17.798 21.4585 13.1842 22V20.2077ZM3.79188 13.1845C4.31129 16.8158 7.18384 19.6882 10.8151 20.2077V22C6.20126 21.4585 2.54098 17.7984 2.00024 13.1845H3.79188Z" fill="#07ACEE"/>
<path d="M7.26124 7.89414C7.26124 7.54471 7.54138 7.2616 7.88668 7.2616H16.1122C16.4575 7.2616 16.7377 7.54471 16.7377 7.89414V16.1054C16.7377 16.4549 16.4575 16.738 16.1122 16.738H7.88668C7.80408 16.7375 7.72238 16.7208 7.64625 16.6888C7.57011 16.6567 7.50103 16.61 7.44296 16.5512C7.38487 16.4925 7.33894 16.4229 7.30776 16.3464C7.27658 16.2699 7.26077 16.1881 7.26124 16.1054V7.89414Z" fill="#1B70EF"/>
<path fill-rule="evenodd" clip-rule="evenodd" d="M15.553 10.5192C15.553 10.4407 15.5842 10.3654 15.6398 10.3098C15.6953 10.2543 15.7706 10.223 15.8491 10.223H17.0338C17.1123 10.223 17.1876 10.2543 17.2431 10.3098C17.2987 10.3654 17.3299 10.4407 17.3299 10.5192C17.3299 10.5978 17.2987 10.6731 17.2431 10.7287C17.1876 10.7841 17.1123 10.8153 17.0338 10.8153H15.8491C15.7706 10.8153 15.6953 10.7841 15.6398 10.7287C15.5842 10.6731 15.553 10.5978 15.553 10.5192ZM15.553 12C15.553 11.9213 15.5842 11.846 15.6398 11.7905C15.6953 11.735 15.7706 11.7038 15.8491 11.7038H17.0338C17.1123 11.7038 17.1876 11.735 17.2431 11.7905C17.2987 11.846 17.3299 11.9213 17.3299 12C17.3299 12.0785 17.2987 12.1538 17.2431 12.2093C17.1876 12.2649 17.1123 12.296 17.0338 12.296H15.8491C15.7706 12.296 15.6953 12.2649 15.6398 12.2093C15.5842 12.1538 15.553 12.0785 15.553 12ZM16.4415 13.1845C16.363 13.1845 16.2876 13.2157 16.2321 13.2712C16.1765 13.3268 16.1453 13.4021 16.1453 13.4806C16.1453 13.5591 16.1765 13.6344 16.2321 13.69C16.2876 13.7455 16.363 13.7768 16.4415 13.7768H17.0338C17.1123 13.7768 17.1876 13.7455 17.2431 13.69C17.2987 13.6344 17.3299 13.5591 17.3299 13.4806C17.3299 13.4021 17.2987 13.3268 17.2431 13.2712C17.1876 13.2157 17.1123 13.1845 17.0338 13.1845H16.4415Z" fill="url(#paint0_linear_364_2336)"/>
<path fill-rule="evenodd" clip-rule="evenodd" d="M8.44577 10.5192C8.44577 10.4407 8.41457 10.3654 8.35903 10.3098C8.30349 10.2543 8.22817 10.223 8.14964 10.223H6.96508C6.88654 10.223 6.81122 10.2543 6.75568 10.3098C6.70014 10.3654 6.66895 10.4407 6.66895 10.5192C6.66895 10.5978 6.70014 10.6731 6.75568 10.7287C6.81122 10.7841 6.88654 10.8153 6.96508 10.8153H8.14964C8.22817 10.8153 8.30349 10.7841 8.35903 10.7287C8.41457 10.6731 8.44577 10.5978 8.44577 10.5192ZM8.44577 12C8.44577 11.9213 8.41457 11.846 8.35903 11.7905C8.30349 11.735 8.22817 11.7038 8.14964 11.7038H6.96508C6.88654 11.7038 6.81122 11.735 6.75568 11.7905C6.70014 11.846 6.66895 11.9213 6.66895 12C6.66895 12.0785 6.70014 12.1538 6.75568 12.2093C6.81122 12.2649 6.88654 12.296 6.96508 12.296H8.14964C8.22817 12.296 8.30349 12.2649 8.35903 12.2093C8.41457 12.1538 8.44577 12.0785 8.44577 12ZM7.55735 13.1845C7.6359 13.1845 7.71122 13.2157 7.76676 13.2712C7.82229 13.3268 7.85349 13.4021 7.85349 13.4806C7.85349 13.5591 7.82229 13.6344 7.76676 13.69C7.71122 13.7455 7.6359 13.7768 7.55735 13.7768H6.96508C6.88654 13.7768 6.81122 13.7455 6.75568 13.69C6.70014 13.6344 6.66895 13.5591 6.66895 13.4806C6.66895 13.4021 6.70014 13.3268 6.75568 13.2712C6.81122 13.2157 6.88654 13.1845 6.96508 13.1845H7.55735Z" fill="url(#paint1_linear_364_2336)"/>
<path fill-rule="evenodd" clip-rule="evenodd" d="M10.2229 6.96569C10.2229 6.88715 10.2541 6.81183 10.3097 6.75629C10.3652 6.70075 10.4406 6.66956 10.5191 6.66956C10.5976 6.66956 10.6729 6.70075 10.7284 6.75629C10.784 6.81183 10.8152 6.88715 10.8152 6.96569V8.15025C10.8152 8.22878 10.784 8.3041 10.7284 8.35964C10.6729 8.41518 10.5976 8.44638 10.5191 8.44638C10.4406 8.44638 10.3652 8.41518 10.3097 8.35964C10.2541 8.3041 10.2229 8.22878 10.2229 8.15025V6.96569ZM11.7035 6.96569C11.7035 6.88715 11.7348 6.81183 11.7903 6.75629C11.8459 6.70075 11.9212 6.66956 11.9997 6.66956C12.0783 6.66956 12.1537 6.70075 12.2091 6.75629C12.2646 6.81183 12.2959 6.88715 12.2959 6.96569V7.55796C12.2959 7.63651 12.2646 7.71183 12.2091 7.76737C12.1537 7.8229 12.0783 7.8541 11.9997 7.8541C11.9212 7.8541 11.8459 7.8229 11.7903 7.76737C11.7348 7.71183 11.7035 7.63651 11.7035 7.55796V6.96569ZM13.4804 6.66956C13.4019 6.66956 13.3265 6.70075 13.271 6.75629C13.2154 6.81183 13.1843 6.88715 13.1843 6.96569V7.55796C13.1843 7.63651 13.2154 7.71183 13.271 7.76737C13.3265 7.8229 13.4019 7.8541 13.4804 7.8541C13.559 7.8541 13.6343 7.8229 13.6899 7.76737C13.7454 7.71183 13.7765 7.63651 13.7765 7.55796V6.96569C13.7765 6.88715 13.7454 6.81183 13.6899 6.75629C13.6343 6.70075 13.559 6.66956 13.4804 6.66956Z" fill="url(#paint2_linear_364_2336)"/>
<path fill-rule="evenodd" clip-rule="evenodd" d="M10.2229 17.0341C10.2229 17.1126 10.2541 17.1881 10.3097 17.2435C10.3652 17.299 10.4406 17.3303 10.5191 17.3303C10.5976 17.3303 10.6729 17.299 10.7284 17.2435C10.784 17.1881 10.8152 17.1126 10.8152 17.0341V15.8496C10.8152 15.771 10.784 15.6957 10.7284 15.6403C10.6729 15.5847 10.5976 15.5535 10.5191 15.5535C10.4406 15.5535 10.3652 15.5847 10.3097 15.6403C10.2541 15.6957 10.2229 15.771 10.2229 15.8496V17.0341ZM11.7035 17.0341C11.7035 17.1126 11.7348 17.1881 11.7903 17.2435C11.8459 17.299 11.9212 17.3303 11.9997 17.3303C12.0783 17.3303 12.1537 17.299 12.2091 17.2435C12.2646 17.1881 12.2959 17.1126 12.2959 17.0341V16.4418C12.2959 16.3633 12.2646 16.288 12.2091 16.2324C12.1537 16.1769 12.0783 16.1458 11.9997 16.1458C11.9212 16.1458 11.8459 16.1769 11.7903 16.2324C11.7348 16.288 11.7035 16.3633 11.7035 16.4418V17.0341ZM13.4804 17.3303C13.4019 17.3303 13.3265 17.299 13.271 17.2435C13.2154 17.1881 13.1843 17.1126 13.1843 17.0341V16.4418C13.1843 16.3633 13.2154 16.288 13.271 16.2324C13.3265 16.1769 13.4019 16.1458 13.4804 16.1458C13.559 16.1458 13.6343 16.1769 13.6899 16.2324C13.7454 16.288 13.7765 16.3633 13.7765 16.4418V17.0341C13.7765 17.1126 13.7454 17.1881 13.6899 17.2435C13.6343 17.299 13.559 17.3303 13.4804 17.3303Z" fill="url(#paint3_linear_364_2336)"/>
<path fill-rule="evenodd" clip-rule="evenodd" d="M9.927 12.0001C9.927 11.6858 10.0518 11.3845 10.274 11.1624C10.4961 10.9402 10.7974 10.8154 11.1116 10.8154C11.4258 10.8154 11.727 10.9402 11.9492 11.1624C12.1713 11.3845 12.2961 11.6858 12.2961 12.0001V13.1846H12V12.5922H10.2232V13.1846H9.927V12.0001ZM10.2232 12.2961H12V12.0001C12 11.7644 11.9064 11.5385 11.7397 11.3718C11.5732 11.2051 11.3473 11.1116 11.1116 11.1116C10.876 11.1116 10.6501 11.2051 10.4834 11.3718C10.3167 11.5385 10.2232 11.7644 10.2232 12.0001V12.2961ZM12.5923 10.8154H14.0729V11.1116H13.4806V12.8884H14.0729V13.1846H12.5923V12.8884H13.1846V11.1116H12.5923V10.8154Z" fill="#F0F3FA"/>
<defs>
<linearGradient id="paint0_linear_364_2336" x1="2.00002" y1="12.0465" x2="22.946" y2="12.0465" gradientUnits="userSpaceOnUse">
<stop stop-color="#9BD2FF"/>
<stop offset="1" stop-color="#E4EFF8"/>
</linearGradient>
<linearGradient id="paint1_linear_364_2336" x1="2.00004" y1="12" x2="17.5061" y2="12" gradientUnits="userSpaceOnUse">
<stop stop-color="#E8F1F8"/>
<stop offset="1" stop-color="#9BD2FF"/>
</linearGradient>
<linearGradient id="paint2_linear_364_2336" x1="12" y1="2.00005" x2="12" y2="22.0001" gradientUnits="userSpaceOnUse">
<stop stop-color="#E6F0F8"/>
<stop offset="1" stop-color="#9BD2FF"/>
</linearGradient>
<linearGradient id="paint3_linear_364_2336" x1="12" y1="8.65314" x2="12" y2="21.8998" gradientUnits="userSpaceOnUse">
<stop stop-color="#9BD2FF"/>
<stop offset="1" stop-color="#E6F0F8"/>
</linearGradient>
</defs>
</svg>

<svg xmlns="http://www.w3.org/2000/svg" width="24" height="24" fill="none" viewBox="0 0 24 24">
    <path fill="#07ACEE" fill-rule="evenodd" d="M10.815 2A10.074 10.074 0 0 0 2 10.815h1.792a8.3 8.3 0 0 1 7.023-7.023zm2.37 1.792V2A10.075 10.075 0 0 1 22 10.815h-1.793a8.3 8.3 0 0 0-7.023-7.023m0 16.416a8.3 8.3 0 0 0 7.022-7.023H22A10.076 10.076 0 0 1 13.184 22zm-9.393-7.023a8.3 8.3 0 0 0 7.023 7.023V22A10.074 10.074 0 0 1 2 13.185z" clip-rule="evenodd"/>
    <path fill="#1B70EF" d="M7.261 7.894c0-.35.28-.632.626-.632h8.225a.63.63 0 0 1 .626.632v8.211a.63.63 0 0 1-.626.633H7.887a.63.63 0 0 1-.626-.633z"/>
    <path fill="url(#ORAI__a)" fill-rule="evenodd" d="M15.553 10.52a.296.296 0 0 1 .296-.297h1.185a.296.296 0 0 1 0 .592h-1.185a.296.296 0 0 1-.296-.296m0 1.48a.296.296 0 0 1 .296-.296h1.185a.296.296 0 0 1 0 .592h-1.185a.296.296 0 0 1-.296-.296m.889 1.185a.296.296 0 0 0 0 .592h.592a.296.296 0 0 0 0-.592z" clip-rule="evenodd"/>
    <path fill="url(#ORAI__b)" fill-rule="evenodd" d="M8.446 10.52a.296.296 0 0 0-.296-.297H6.965a.296.296 0 0 0 0 .592H8.15a.297.297 0 0 0 .296-.296m0 1.48a.296.296 0 0 0-.296-.296H6.965a.296.296 0 0 0 0 .592H8.15A.296.296 0 0 0 8.446 12m-.889 1.185a.296.296 0 0 1 0 .592h-.592a.296.296 0 0 1 0-.592z" clip-rule="evenodd"/>
    <path fill="url(#ORAI__c)" fill-rule="evenodd" d="M10.223 6.966a.296.296 0 1 1 .592 0V8.15a.296.296 0 1 1-.592 0zm1.48 0a.296.296 0 0 1 .593 0v.592a.296.296 0 0 1-.592 0zm1.777-.296a.296.296 0 0 0-.296.296v.592a.296.296 0 1 0 .593 0v-.592a.296.296 0 0 0-.297-.296" clip-rule="evenodd"/>
    <path fill="url(#ORAI__d)" fill-rule="evenodd" d="M10.223 17.034a.296.296 0 1 0 .592 0V15.85a.295.295 0 0 0-.505-.21.3.3 0 0 0-.087.21zm1.48 0a.296.296 0 0 0 .593 0v-.592a.297.297 0 0 0-.592 0zm1.777.296a.296.296 0 0 1-.296-.296v-.592a.296.296 0 1 1 .593 0v.592a.296.296 0 0 1-.297.296" clip-rule="evenodd"/>
    <path fill="#F0F3FA" fill-rule="evenodd" d="M9.927 12a1.184 1.184 0 1 1 2.37 0v1.185H12v-.593h-1.777v.593h-.296zm.296.296H12V12a.888.888 0 1 0-1.777 0zm2.37-1.48h1.48v.296h-.592v1.776h.592v.297h-1.48v-.297h.592v-1.776h-.593z" clip-rule="evenodd"/>
    <defs>
        <linearGradient id="ORAI__a" x1="2" x2="22.946" y1="12.046" y2="12.046" gradientUnits="userSpaceOnUse">
            <stop stop-color="#9BD2FF"/>
            <stop offset="1" stop-color="#E4EFF8"/>
        </linearGradient>
        <linearGradient id="ORAI__b" x1="2" x2="17.506" y1="12" y2="12" gradientUnits="userSpaceOnUse">
            <stop stop-color="#E8F1F8"/>
            <stop offset="1" stop-color="#9BD2FF"/>
        </linearGradient>
        <linearGradient id="ORAI__c" x1="12" x2="12" y1="2" y2="22" gradientUnits="userSpaceOnUse">
            <stop stop-color="#E6F0F8"/>
            <stop offset="1" stop-color="#9BD2FF"/>
        </linearGradient>
        <linearGradient id="ORAI__d" x1="12" x2="12" y1="8.653" y2="21.9" gradientUnits="userSpaceOnUse">
            <stop stop-color="#9BD2FF"/>
            <stop offset="1" stop-color="#E6F0F8"/>
        </linearGradient>
    </defs>
</svg>
